X: 1205
T: The Green Mountain
M:C|
L:1/8
R:Reel
B:O'Neill's 1205
N:Collected by McFadden
Z:Transcribed by Trish O'Neil
K:D
(dB)| AFAB AFEF| D(F {G}(3FDF) ABde| fB{c}BA Bcde| fdgf efdB|
AFAB AFEF| D(F{G}(3FEF) ABde| f(B{c}BA) BcdB| AFEFD2||
(eg)| fgab afde| fdad fddf| efga beef| (3gfe) (be) gfeg|
fgaf bfaf| defd efde| f(B{c}BA) BcdB| AFEFD2||


